assets/tv.svg

<svg fill="none" height="1080" viewBox="0 0 1920 1080" width="1920" xmlns="http://www.w3.org/2000/svg" xmlns:xlink="http://www.w3.org/1999/xlink"><clipPath id="a"><path d="m318 80h1537v889.957h-1537z"/></clipPath><g clip-path="url(#a)"><path d="m1833.21 743.383-70.26 62.09 8.17 35.947h46.84l37.04-29.412z" fill="#e2cfb1"/><path d="m373.555 871.92-23.42 90.412h69.17l50.653-22.876 7.177-46.839h1076.085l-18.47 77.34h89.32l62.09-38.126v-59.911z" fill="#e2cfb1"/><path d="m453.618 710.704h1392.672l-157.95 139.43h-1370.34z" fill="#ffe9c6"/><path d="m1846.29 710.704-157.95 139.43h-1370.34v21.786h1370.34l157.95-139.43z" fill="#f4e0bf"/><path d="m1612.09 80h-1107.82v655.758h349.723l-52.345 75.161h473.842l-36.24-75.161h372.84z" fill="#353535"/></g></svg>

<svg width="1920" height="1080" viewBox="0 0 1920 1080" fill="none" xmlns="http://www.w3.org/2000/svg">
<g clip-path="url(#clip0_304_57)">
<path d="M1833.21 743.383L1762.95 805.473L1771.12 841.42H1817.96L1855 812.008L1833.21 743.383Z" fill="#E2CFB1"/>
<path d="M373.555 871.92L350.135 962.332H419.305L469.958 939.456L477.135 892.617H1553.22L1534.75 969.957H1624.07L1686.16 931.831V871.92H373.555Z" fill="#E2CFB1"/>
<path d="M453.618 710.704H1846.29L1688.34 850.134H318L453.618 710.704Z" fill="#FFE9C6"/>
<path d="M1846.29 710.704L1688.34 850.134H318V871.92H1688.34L1846.29 732.49V710.704Z" fill="#F4E0BF"/>
<path d="M1612.09 80H504.27V735.758H853.993L801.648 810.919H1275.49L1239.25 735.758H1612.09V80Z" fill="#353535"/>
</g>
<defs>
<clipPath id="clip0_304_57">
<rect width="1537" height="889.957" fill="white" transform="translate(318 80)"/>
</clipPath>
</defs>
</svg>
